X:1
T:Raivlin Reel
R:Reel
C:Barbara McOwen
M:C|
%%printtempo 0
Q:200
K:D
EF|\
"D"D3 G FEDA|GFED "D7"d3c|"G"BDAD GDFD|"A"EFGE "A7"FGFE|"D"D3 G FEDA|
"D"GFED "D7"d3 c|"G"BDAD GDFD|"A7"EFGA "D"D2::FG|"Bm"Add2 "G"Bdd2|"A"cdef g3f|
"G"efge fgef|"Em"gaaA "A7"agfe|"D"d2 ed (fd)(gd)|"D"fedc "Bm"BAGA|"G"BDAD "Em"GDFD|"A"EFGA "D"D2:|
